icons/file-check-24.svg

<svg width="24" height="24" viewBox="0 0 24 24" fill="none" xmlns="http://www.w3.org/2000/svg">
<path d="M14.982 1C15.2448 0.999925 15.505 1.05164 15.7478 1.15219C15.9906 1.25274 16.2112 1.40015 16.397 1.586L20.414 5.604C20.7891 5.97899 20.9999 6.48761 21 7.018V11H19.5V8.5H15.5C14.9696 8.5 14.4609 8.28929 14.0858 7.91421C13.7107 7.53914 13.5 7.03043 13.5 6.5V2.5H5C4.86739 2.5 4.74021 2.55268 4.64645 2.64645C4.55268 2.74022 4.5 2.86739 4.5 3V21C4.5 21.1326 4.55268 21.2598 4.64645 21.3536C4.74021 21.4473 4.86739 21.5 5 21.5H10V23H5C4.46957 23 3.96086 22.7893 3.58579 22.4142C3.21071 22.0391 3 21.5304 3 21V3C3 2.46957 3.21071 1.96086 3.58579 1.58579C3.96086 1.21071 4.46957 1 5 1H14.982ZM15 6.5C15 6.63261 15.0527 6.75979 15.1464 6.85355C15.2402 6.94732 15.3674 7 15.5 7H19.5C19.4956 6.87356 19.4434 6.7535 19.354 6.664L15.336 2.646C15.2465 2.55658 15.1264 2.50441 15 2.5V6.5Z" fill="black"/>
<path d="M11.25 21.5C11.6642 21.5 12 21.8358 12 22.25C12 22.6642 11.6642 23 11.25 23H9C8.58579 23 8.25 22.6642 8.25 22.25C8.25 21.8358 8.58579 21.5 9 21.5H11.25ZM20.7197 15.2197C21.0126 14.9268 21.4874 14.9268 21.7803 15.2197C22.0732 15.5126 22.0732 15.9874 21.7803 16.2803L16.457 21.6035C16.3643 21.6962 16.2539 21.7701 16.1328 21.8203C16.0115 21.8706 15.8814 21.8965 15.75 21.8965C15.6186 21.8965 15.4885 21.8706 15.3672 21.8203C15.2461 21.7701 15.1357 21.6962 15.043 21.6035L12.7197 19.2803C12.4268 18.9874 12.4268 18.5126 12.7197 18.2197C13.0126 17.9268 13.4874 17.9268 13.7803 18.2197L15.75 20.1895L20.7197 15.2197ZM19.5 12.25V10C19.5 9.58579 19.8358 9.25 20.25 9.25C20.6642 9.25 21 9.58579 21 10V12.25C21 12.6642 20.6642 13 20.25 13C19.8358 13 19.5 12.6642 19.5 12.25Z" fill="black"/>
</svg>

<svg xmlns="http://www.w3.org/2000/svg" width="24" height="24" viewBox="0 0 24 24"><path d="M14.982 1a2.013 2.013 0 0 1 1.415.586l4.017 4.018A2 2 0 0 1 21 7.018V11h-1.5V8.5h-4a2 2 0 0 1-2-2v-4H5a.504.504 0 0 0-.354.146A.504.504 0 0 0 4.5 3v18c0 .133.053.26.146.354A.504.504 0 0 0 5 21.5h5V23H5a2 2 0 0 1-2-2V3a2 2 0 0 1 2-2h9.982ZM15 6.5c0 .133.053.26.146.354A.504.504 0 0 0 15.5 7h4a.5.5 0 0 0-.146-.336l-4.018-4.018A.502.502 0 0 0 15 2.5v4Z"/><path d="M11.25 21.5a.75.75 0 0 1 0 1.5H9a.75.75 0 0 1 0-1.5h2.25Zm9.47-6.28a.749.749 0 1 1 1.06 1.06l-5.323 5.324a1.01 1.01 0 0 1-.707.292.991.991 0 0 1-.707-.292L12.72 19.28a.749.749 0 1 1 1.06-1.06l1.97 1.969 4.97-4.969Zm-1.22-2.97V10a.75.75 0 0 1 1.5 0v2.25a.75.75 0 0 1-1.5 0Z"/></svg>
